src/components/profile_avatars/profile-male-3.svg

<svg xmlns="http://www.w3.org/2000/svg" width="528" height="528" fill="none" viewBox="0 0 528 528"><g clip-path="url(#a)"><ellipse cx="265.5" cy="278.5" fill="#59a315" rx="257.5" ry="254.5"/><path fill="#5768a6" d="M631.069 898.607c10.186 308.833 75.096 553.613-200.48 562.703S2.98519 1207.44-7.20079 898.606C-38.4149 456.768 36.9213 396.243 264.147 385.094c268.229-13.162 327.955 64.888 350.316 208.922 34.883 224.694 11.359 145.501 16.606 304.591"/><path fill="#ffd4b7" d="M203.662 390.422c9.24-41.164-12.322-99.917 0-176.925 55.445-40.044 174.737-5.039 174.737 46.71 0 51.75 0 69.729 21.842 99.972-6.161 27.723-59.646 71.071-96.61 93.25-46.205 27.722-108.066-26.941-99.969-63.007"/><path fill="#e9b695" d="M271.708 394.752c-31.095 1.545-59.646-12.601-66.367-24.363l-1.68-18.481c7.561-2.521 30.579-6.049 62.166 0 31.587 6.048 88.489-50.126 112.572-67.207v18.482c-.84 10.921-1.598 32.751-10.27 44.314-17.641 23.522-33.256 44.116-96.421 47.255"/><path fill="#faceb2" d="M164.177 308.097c-6.747-15.978-13.441-75.327-16.802-104.17-17.641-168.0173 150.376-136.0941 190.7-133.5738 32.259 2.0162 42.004 75.8878 42.844 112.5718 2.24 13.441 3.36 49.058 3.36 70.564 0 26.883-3.36 51.246-13.441 73.088s-47.045 37.804-73.928 41.164c-27.747 3.468-57.965 6.721-77.287 0s-39.485-21.842-55.446-59.644"/><rect width="67.4268" height="89.6375" x="354.927" y="151.616" fill="#faceb2" rx="33.7134" transform="rotate(10.4281 354.927 151.616)"/><rect width="58.3533" height="84.2757" fill="#faceb2" rx="29.1766" transform="rotate(166.29971 80.04156006 88.92062854)scale(1 -1)"/><path fill="#da4721" d="M161.657 126.637c-7.561 9.241-8.401 12.602-8.401 36.124 0 12.954-2.09 33.547-3.36 42.844.84 2.521-.226.84-3.361.84-5.88-11.76-6.145-15.121-10.92-75.594l-.001-.013c-2.52-31.9236 4.2-54.606 6.72-67.2073 5.881-15.9616 28.456-46.3029 55.447-54.60778 21.842-6.72069 76.244-13.58274 106.691-5.03772 25.178 7.0664 40.324 16.799 47.044 26.0413 2.521-2.5216 18.482-4.2004 30.243 0 17.114 6.1121 21.843 29.403 21.843 54.6056 0 45.3659 3.36 46.7289 0 60.4859-5.106 20.9.559 5.043-2.521 14.284-.579 4.487-8.401 10.08-8.401 21.001 0 2.52-6.72 8.401-6.72 15.961 0 5.881-9.241 19.322-9.241 16.802-1.402-5.743-6.356-57.218-7.561-63.845-3.36-18.483 0-54.6093-26.042-46.208-30.266 9.763 3.43-4.516-8.426-15.4371-3.648-3.3603 2.545 4.5178-38.62 24.6801-18.557 9.089-87.368 17.325-107.531 10.604-12.601-4.201-23.326-.669-26.882 3.677"/><path fill="#da4721" d="M136.454 65.3103c8.065-1.3442 12.322-10.0811 13.442-14.2815l7.56 26.8827h-23.522l-15.122-14.2814c2.521 1.1201 9.577 3.0243 17.642 1.6802"/><path fill="#da4721" d="M366.638 79.1191C355.87 98.148 313.945 135.432 232.383 132.335c-81.562-3.096-114.738-32.8969-121.131-47.4105l31.134 2.7523c-2.965-.2701-3.45-.4615-7.917-2.7523-5.562-2.8514-16.151-12.3829-16.151-21.2865 0-.3884 32.932 13.2475 48.074 12.28 12.113-.7741 20.904-4.8619 34.699-4.5394z"/><path fill="#fdfcf5" d="M257.22 309.821c14.517-.545 32.441-4.225 41.061-6.728.817-.238 1.618.852 1.16 1.57-3.856 6.048-10.393 16.552-40.381 18.086-31.906 1.631-37.646-10.105-39.536-16.056-.199-.625.384-1.21 1.019-1.046 7.4 1.913 21.332 4.75 36.677 4.174"/><path fill="#191d46" d="M347.316 513.075c-11.071-30.619-72.248-4.2-72.248-50.405 0 0 34.962.001 83.169-53.766 38.117-42.513 39.066-52.986 37.793-55.507-.274-.258-.55-.518-.829-.778 0 0 .492.11.829.778 37.681 35.455 28.525 43.055 21.853 63.908-20.997 65.624-47.319 67.316-70.567 95.77M210.382 508.037c29.403-35.284 66.367-21.002 61.326-45.365 0 0-50.405-33.606-58.806-58.809-8.401-25.202-7.561-26.88-7.561-26.88-16.801 14.282-32.763 22.68-26.042 68.885 6.317 43.429 12.601 51.248 31.083 62.169"/><path fill="#6d83f3" d="M306.077 435.052c-17.459 8.141-25.704 24.312-27.643 31.38v17.81c2.909 1.413 7.274 13.57 27.643 18.658 13.857 3.462 35.645 9.884 45.101 11.015 4.608-9.329 12.221-32.557 11.64-47.483-.582-14.927-7.517-35.904-11.64-42.406-7.759.283-27.643 2.884-45.101 11.026M237.729 435.048c17.458 8.142 25.703 19.978 27.643 27.046v19.035c-2.91 1.413-7.275 16.679-27.643 21.768-13.857 3.462-27.223 6.714-36.68 7.844-4.607-9.329-14.374-29.908-13.792-44.834.582-14.927 3.325-32.15 7.447-38.652 7.76.283 25.566-.349 43.025 7.793"/><path fill="#354cc1" d="m349.034 452.112-62.426 11.907-7.209-1.701.554 19.157 62.695 8.451-58.024-17.496zM201.298 453.341l56.256 10.731 6.497-1.533-.499 17.264-56.5 7.616 52.29-15.767z"/><rect width="26.1881" height="32.2282" x="258.066" y="454.564" fill="#4c64df" rx="6.72069"/><path fill="#191d46" d="M424.462 539.57c3.393-66.513 20.813-114.022 31.22-141.849l12.217 3.393 19.682 6.788c-6.561 18.777-18.801 54.975-23.076 92.303-10.18 88.911-7.013 153.84-4.751 213.792l-35.292-3.393c0-38.008-2.324-125.484 0-171.034"/><path stroke="#3c4386" stroke-width="5.42964" d="M273.789 486.631c-1.131 33.03-6.108 211.077 4.072 261.98"/><path fill="#191d46" d="M90.893 542.964c3.3935-66.513 20.459-107.914 30.866-135.741l23.755-6.787 14.253-3.394-.055.156c-6.59 18.862-21.798 62.388-26.061 99.614-10.18 88.91-7.013 153.84-4.751 213.792l-38.007 3.393c0-38.007-2.324-125.484 0-171.033"/></g><defs><clipPath id="a"><path fill="#fff" d="M0 264C0 118.197 118.197 0 264 0s264 118.197 264 264-118.197 264-264 264S0 409.803 0 264"/></clipPath></defs></svg>

<svg width="528" height="528" viewBox="0 0 528 528" fill="none" xmlns="http://www.w3.org/2000/svg">
<g clip-path="url(#clip0_15658_179405)">
<ellipse cx="265.5" cy="278.5" rx="257.5" ry="254.5" fill="#59A315"/>
<path d="M631.069 898.607C641.255 1207.44 706.165 1452.22 430.589 1461.31C155.013 1470.4 2.98519 1207.44 -7.20079 898.606C-38.4149 456.768 36.9213 396.243 264.147 385.094C532.376 371.932 592.102 449.982 614.463 594.016C649.346 818.71 625.822 739.517 631.069 898.607Z" fill="#5768A6"/>
<path d="M203.662 390.422C212.902 349.258 191.34 290.505 203.662 213.497C259.107 173.453 378.399 208.458 378.399 260.207C378.399 311.957 378.399 329.936 400.241 360.179C394.08 387.902 340.595 431.25 303.631 453.429C257.426 481.151 195.565 426.488 203.662 390.422Z" fill="#FFD4B7"/>
<path d="M271.708 394.752C240.613 396.297 212.062 382.151 205.341 370.389L203.661 351.908C211.222 349.387 234.24 345.859 265.827 351.908C297.414 357.956 354.316 301.782 378.399 284.701V303.183C377.559 314.104 376.801 335.934 368.129 347.497C350.488 371.019 334.873 391.613 271.708 394.752Z" fill="#E9B695"/>
<path d="M164.177 308.097C157.43 292.119 150.736 232.77 147.375 203.927C129.734 35.9097 297.751 67.8329 338.075 70.3532C370.334 72.3694 380.079 146.241 380.919 182.925C383.159 196.366 384.279 231.983 384.279 253.489C384.279 280.372 380.919 304.735 370.838 326.577C360.757 348.419 323.793 364.381 296.91 367.741C269.163 371.209 238.945 374.462 219.623 367.741C200.301 361.02 180.138 345.899 164.177 308.097Z" fill="#FACEB2"/>
<rect x="354.927" y="151.616" width="67.4268" height="89.6375" rx="33.7134" transform="rotate(10.4281 354.927 151.616)" fill="#FACEB2"/>
<rect width="58.3533" height="84.2757" rx="29.1766" transform="matrix(-0.971548 0.236843 0.236843 0.971548 178.866 156.354)" fill="#FACEB2"/>
<path d="M161.657 126.637C154.096 135.878 153.256 139.239 153.256 162.761C153.256 175.715 151.166 196.308 149.896 205.605C150.736 208.126 149.67 206.445 146.535 206.445C140.655 194.685 140.39 191.324 135.615 130.851L135.614 130.838C133.094 98.9144 139.814 76.232 142.334 63.6307C148.215 47.6691 170.79 17.3278 197.781 9.02292C219.623 2.30223 274.025 -4.55982 304.472 3.9852C329.65 11.0516 344.796 20.7842 351.516 30.0265C354.037 27.5049 369.998 25.8261 381.759 30.0265C398.873 36.1386 403.602 59.4295 403.602 84.6321C403.602 129.998 406.962 131.361 403.602 145.118C398.496 166.018 404.161 150.161 401.081 159.402C400.502 163.889 392.68 169.482 392.68 180.403C392.68 182.923 385.96 188.804 385.96 196.364C385.96 202.245 376.719 215.686 376.719 213.166C375.317 207.423 370.363 155.948 369.158 149.321C365.798 130.838 369.158 94.7117 343.116 103.113C312.85 112.876 346.546 98.597 334.69 87.6759C331.042 84.3156 337.235 92.1937 296.07 112.356C277.513 121.445 208.702 129.681 188.539 122.96C175.938 118.759 165.213 122.291 161.657 126.637Z" fill="#DA4721"/>
<path d="M136.454 65.3103C144.519 63.9661 148.776 55.2292 149.896 51.0288L157.456 77.9115H133.934L118.812 63.6301C121.333 64.7502 128.389 66.6544 136.454 65.3103Z" fill="#DA4721"/>
<path d="M366.638 79.1191C355.87 98.148 313.945 135.432 232.383 132.335C150.821 129.239 117.645 99.4381 111.252 84.9245L142.386 87.6768C139.421 87.4067 138.936 87.2153 134.469 84.9245C128.907 82.0731 118.318 72.5416 118.318 63.638C118.318 63.2496 151.25 76.8855 166.392 75.918C178.505 75.1439 187.296 71.0561 201.091 71.3786L366.638 79.1191Z" fill="#DA4721"/>
<path d="M257.22 309.821C271.737 309.276 289.661 305.596 298.281 303.093C299.098 302.855 299.899 303.945 299.441 304.663C295.585 310.711 289.048 321.215 259.06 322.749C227.154 324.38 221.414 312.644 219.524 306.693C219.325 306.068 219.908 305.483 220.543 305.647C227.943 307.56 241.875 310.397 257.22 309.821Z" fill="#FDFCF5"/>
<path d="M347.316 513.075C336.245 482.456 275.068 508.875 275.068 462.67C275.068 462.67 310.03 462.671 358.237 408.904C396.354 366.391 397.303 355.918 396.03 353.397C395.756 353.139 395.48 352.879 395.201 352.619C395.201 352.619 395.693 352.729 396.03 353.397C433.711 388.852 424.555 396.452 417.883 417.305C396.886 482.929 370.564 484.621 347.316 513.075Z" fill="#191D46"/>
<path d="M210.382 508.037C239.785 472.753 276.749 487.035 271.708 462.672C271.708 462.672 221.303 429.066 212.902 403.863C204.501 378.661 205.341 376.983 205.341 376.983C188.54 391.265 172.578 399.663 179.299 445.868C185.616 489.297 191.9 497.116 210.382 508.037Z" fill="#191D46"/>
<path d="M306.077 435.052C288.618 443.193 280.373 459.364 278.434 466.432V484.242C281.343 485.655 285.708 497.812 306.077 502.9C319.934 506.362 341.722 512.784 351.178 513.915C355.786 504.586 363.399 481.358 362.818 466.432C362.236 451.505 355.301 430.528 351.178 424.026C343.419 424.309 323.535 426.91 306.077 435.052Z" fill="#6D83F3"/>
<path d="M237.729 435.048C255.187 443.19 263.432 455.026 265.372 462.094V481.129C262.462 482.542 258.097 497.808 237.729 502.897C223.872 506.359 210.506 509.611 201.049 510.741C196.442 501.412 186.675 480.833 187.257 465.907C187.839 450.98 190.582 433.757 194.704 427.255C202.464 427.538 220.27 426.906 237.729 435.048Z" fill="#6D83F3"/>
<path d="M349.034 452.112L286.608 464.019L279.399 462.318L279.953 481.475L342.648 489.926L284.624 472.43L349.034 452.112Z" fill="#354CC1"/>
<path d="M201.298 453.341L257.554 464.072L264.051 462.539L263.552 479.803L207.052 487.419L259.342 471.652L201.298 453.341Z" fill="#354CC1"/>
<rect x="258.066" y="454.564" width="26.1881" height="32.2282" rx="6.72069" fill="#4C64DF"/>
<path d="M424.462 539.57C427.855 473.057 445.275 425.548 455.682 397.721L467.899 401.114L487.581 407.902C481.02 426.679 468.78 462.877 464.505 500.205C454.325 589.116 457.492 654.045 459.754 713.997L424.462 710.604C424.462 672.596 422.138 585.12 424.462 539.57Z" fill="#191D46"/>
<path d="M273.789 486.631C272.658 519.661 267.681 697.708 277.861 748.611" stroke="#3C4386" stroke-width="5.42964"/>
<path d="M90.893 542.964C94.2865 476.451 111.352 435.05 121.759 407.223L145.514 400.436L159.767 397.042L159.712 397.198C153.122 416.06 137.914 459.586 133.651 496.812C123.471 585.722 126.638 650.652 128.9 710.604L90.893 713.997C90.893 675.99 88.569 588.513 90.893 542.964Z" fill="#191D46"/>
</g>
<defs>
<clipPath id="clip0_15658_179405">
<path d="M0 264C0 118.197 118.197 0 264 0C409.803 0 528 118.197 528 264C528 409.803 409.803 528 264 528C118.197 528 0 409.803 0 264Z" fill="white"/>
</clipPath>
</defs>
</svg>
